X:714
T:Reel 714
M:4/4
K:Amaj
L:1/8
AF|EA,CA, EA,CF|EA,CA, G,A,B,F|EA,CA, EA,CE||FAGB AFEC:||2FGAB cAA2|cBAG AGFE|FAEC CB,B,2|cBAG AEFA|EFAB cAA2|cBAG AECE|FAEC CB,B,D|CB,A,G, A,B,CE|FAEC C2B,|
